X:1
T:Title
%%score ( 1 2 ) { 3 | 4 }
L:1/8
M:4/4
K:A
V:1 treble nm="Bright Piano"
V:2 treble 
V:3 bass nm="Bright Piano"
V:4 bass 
V:1
 z4 z2[Q:1/4=100] [EA]2 | [FA]2 [Ec]2 B-[DB] [CA]2 | [FB]2 [EB]2 [Ec]2 [EA]2 | %3
 [Fc]2 [Fd]2 [Ge]2 [Ec]2 |[M:3/4] F2 z2 z2 |[M:1/4] [EA]2 |[M:4/4] [FA]2 [Ec]2 B-[DB] [CA]2 | %7
 [FB]2 [EB]2 [Ec]2 [EA]2 | [Fc]2 [Fd]2 [Ge]2 [Ec]2 |[M:3/4] F2 z2 z2 |[M:1/4] [Ac]2 | %11
[M:4/4] [Ac]2 [GB]2 [FA]2 [^EG]2 | [FA]2 [Ec]2 [EB]2 [Gc]2 | [FA]2 [EA]2 [FA]2 [DE]2 | %14
 [CA]2 [EB]2 [Ec]2 [EA]2 | [Fc]2 [Fd]2 [Ee]2 [Ec]2 |[M:3/4] F2 z2 z2 |] %17
V:2
 x8 | z4 .E2 z2 | x8 | x8 |[M:3/4] B2- [EB-][DB] [CA]2 |[M:1/4] x2 |[M:4/4] z4 .E2 z2 | x8 | x8 | %9
[M:3/4] B2- [EB-][DB] [CA]2 |[M:1/4] x2 |[M:4/4] x8 | x8 | x8 | x8 | x8 | %16
[M:3/4] B2- [EB-][DB] [CA]2 |] %17
V:3
 z4 z2 C2 | C2 A,2 G,2 A,2 | A,2 G,2 A,2 C2 | A,2 A,2 B,2 A,2 |[M:3/4] A,2 G,2 A,2 |[M:1/4] C2 | %6
[M:4/4] C2 A,2 G,2 A,2 | A,2 G,2 A,2 C2 | A,2 A,2 B,2 A,2 |[M:3/4] A,2 G,2 A,2 | %10
[M:1/4][K:treble] E2 |[M:4/4] E2 D2 C2 C2 | C2[K:bass] A,2 G,2 C2 | C2 A,2 A,2 G,2 | %14
 A,2 G,2 A,2 C2 | A,2 B,2 G,2 A,2 |[M:3/4] A,2 G,2 A,2 |] %17
V:4
 z4 z2 A,2 | F,2 C,D, E,2 F,2 | D,2 E,2 z2 A,2 | F,2 F,2 E,2 A,,2 |[M:3/4] D,2 E,2 A,,2 | %5
[M:1/4] A,2 |[M:4/4] F,2 C,D, E,2 F,2 | D,2 E,2 z2 A,2 | F,2 F,2 E,2 A,,2 |[M:3/4] D,2 E,2 A,,2 | %10
[M:1/4] A,2 |[M:4/4] C,2 E,2 F,2 C,2 | F,2 C,D, E,2 ^E,2 | F,2 C,2 D,2 E,2 | F,2 E,2 z2 A,2 | %15
 F,2 B,,2 E,2 A,,2 |[M:3/4] D,2 E,2 A,,2 |] %17

